X: 4715
T: Boys Of Ballinahinch, The
R: reel
M: 4/4
K: Dmajor
ag|f3d edBA|(3Bcd ef g2 ag|fAdf edBc|dBAF EF D2|
fAdf edBA|(3Bcd ef g2 ag|f3d eB B2|dBAF EF D2||
faaf dcde|faaf g3a|fa a2 afdf|(3gfe fd edBd|
faaf dAde|faaf g3a|b2 af gfed|(3Bcd ef g4||

